assets/img/icons/duotone-icons/Home/Fireplace.svg

<?xml version="1.0" encoding="UTF-8"?>
<svg width="24px" height="24px" viewBox="0 0 24 24" version="1.1" xmlns="http://www.w3.org/2000/svg" xmlns:xlink="http://www.w3.org/1999/xlink">
    <!-- Generator: Sketch 52.2 (67145) - http://www.bohemiancoding.com/sketch -->
    <title>Stockholm-icons / Home / Fireplace</title>
    <desc>Created with Sketch.</desc>
    <g id="Stockholm-icons-/-Home-/-Fireplace" stroke="none" stroke-width="1" fill="none" fill-rule="evenodd">
        <rect id="bound" x="0" y="0" width="24" height="24"></rect>
        <path d="M17,20 L17,12 C17,9.23857625 14.7614237,7 12,7 C9.23857625,7 7,9.23857625 7,12 L7,20 L5,20 C3.8954305,20 3,19.1045695 3,18 L3,6 C3,4.8954305 3.8954305,4 5,4 L19,4 C20.1045695,4 21,4.8954305 21,6 L21,18 C21,19.1045695 20.1045695,20 19,20 L17,20 Z" id="Combined-Shape" fill="#335EEA" opacity="0.3"></path>
        <path d="M12.9717525,11.7005668 C12.8097937,13.3201542 12.3239175,14.1866868 11.5141238,14.3001646 C11.5141238,14.3001646 12.2429381,11.4576287 11.2711857,10 C11.2711857,10 11.1681401,11.5618236 10.126941,13.4359819 C9.63887975,14.3144921 9.08474261,14.9067082 9.08474261,16.0734529 C9.08474261,17.7393714 10.7908674,18.6003292 12.002779,18.6003292 C13.2146906,18.6003292 14.9152574,18.0172577 14.9152574,15.9765075 C14.9152574,15.1373628 14.2674224,13.7120493 12.9717525,11.7005668 Z" id="Path-17" fill="#335EEA"></path>
    </g>
</svg>

<svg width="24" height="24" viewBox="0 0 24 24" xmlns="http://www.w3.org/2000/svg"><g fill="none" fill-rule="evenodd"><path d="M0 0h24v24H0z"/><path d="M17 20v-8a5 5 0 00-10 0v8H5a2 2 0 01-2-2V6a2 2 0 012-2h14a2 2 0 012 2v12a2 2 0 01-2 2h-2z" fill="#335EEA" opacity=".3"/><path d="M12.972 11.7c-.162 1.62-.648 2.487-1.458 2.6 0 0 .729-2.842-.243-4.3 0 0-.103 1.562-1.144 3.436-.488.878-1.042 1.47-1.042 2.637 0 1.666 1.706 2.527 2.918 2.527 1.212 0 2.912-.583 2.912-2.623 0-.84-.648-2.265-1.943-4.276z" fill="#335EEA"/></g></svg>
